X:1
T:Title
%%score { ( 1 3 ) | ( 2 4 ) }
L:1/8
Q:1/4=104
M:3/4
K:Bb
V:1 treble nm="Grand Piano"
V:3 treble 
V:2 bass 
V:4 bass 
V:1
 [Fd]2 [Fc]2 [FB]2 | [FA]4 [FB]2 | c2 z2 z2 | [DB]6 | [GB]2 [FA]2 [EG]2 | [DF]4 [DB]2 | B2 z2 z2 | %7
w: Powell~G.~Fithian * *|||||||
 [Ec]4 _d2 | [Dd]2 [Fc]2 [FB]2 | [FA]4 [FB]2 | c2 z2 z2 | B6 | B2 A2 G2 | F4 F2 | z2 z2 B2- | B6 |] %16
w: |||||||||
V:2
 [B,,B,]2 [C,A,]2 [D,B,]2 | [E,C]4 [D,B,]2 | [C,B,]4 [F,CE]2 | [B,,F,B,]6 | %4
 [E,B,]2 [E,B,]2 [E,B,]2 | [B,,B,]4 [G,B,]2 | G,2 z2 [C,B,]2 | [F,A,]6 | [B,,F,]2 [C,A,]2 [D,B,]2 | %9
 [E,C]4 [D,B,]2 | [C,B,]4 [F,CE]2 | [G,B,D]6 | [=E,G,_D]2 [E,A,D]2 [E,B,D]2 | [F,B,D]4 [F,A,E]2 | %14
 F,4 [G,E]2 | F,6 |] %16
V:3
 x6 | x6 | =E2- [EG]2 A2 | x6 | x6 | x6 | =E2- [CEA]2 [EG]2 | x6 | x6 | x6 | =E2- [EG]2 A2 | x6 | %12
 x6 | x6 | [DF]4 z2 | D6 |] %16
V:4
 x6 | x6 | x6 | x6 | x6 | x6 | C,4 z2 | x6 | x6 | x6 | x6 | x6 | x6 | x6 | B,,6- | B,,6 |] %16

